X:1
T:Title
%%score { ( 1 3 ) | ( 2 4 ) }
L:1/8
M:4/4
K:F
V:1 treble nm="Grand Piano"
V:3 treble 
V:2 bass 
V:4 bass 
V:1
 z4 z2[Q:1/4=126] F>G | [FA]2 [FA]2 [_EAc]2 [Ac]2 | [EBc]4 z4 | [EGB]2 [GB]2 [EBd]2 [Bd]2 | %4
[M:3/4] [FAd]4 [CFA]2 |[M:1/4] z2 |[M:4/4] [FAc]2 [Ac]2 [C_EA]2 [A,CEA]2 | [CEc]4 [G,CEG]2 G>G | %8
 [^FA]2 [FA]2 [=F=B]2 [Fd]2 |[M:3/4] [Ec]6 |[M:1/4] c2 |[M:4/4] [CAc]4 [CFA]4 | [CFA]4 [CF]4 | %13
 F2 F>E F2 G2 | [CFA]6 z2 | [Fd]4 [FA]4 | z4 [DF]4 | F2 z2 z4 | C4 z2 c2 | [CAc]4 [CFA]4 | %20
 [CFA]4 [CF]4 | [B,DF]2 D>E F2 G2 | [^CA]6 [CA]2 | [DG]4 [DGd]4 | [DF_A]4 [DFAd]4 | %25
 [CFc]>[CF] [CEB]>[CFA] [DG]2 [EG]2[Q:1/4=124][Q:1/4=122][Q:1/4=120][Q:1/4=119][Q:1/4=117][Q:1/4=115][Q:1/4=113][Q:1/4=111][Q:1/4=109][Q:1/4=107][Q:1/4=106][Q:1/4=104][Q:1/4=102] | %26
[M:3/4] [A,CF]6[Q:1/4=100][Q:1/4=98][Q:1/4=96] |] %27
V:2
 z8 | [F,,F,]2 [F,C]2 [^F,,^F,]2 [F,C_E]2 | [G,,G,]2 z2 [C,,C,]2 z2 | %3
 [C,,C,]2 [G,CE]2 [C,,C,]2 [CEG]2 |[M:3/4] [F,,F,]2 F,2 F,2 |[M:1/4][K:treble] A>B | %6
[M:4/4][K:bass] [F,,F,]2 [F,CF]2 [^F,,^F,]2 F,2 | G,2 G,,2 C,2 E>E | %8
 [D,,D,]2 [D,C]2 [G,,G,]2 [G,=B,]2 |[M:3/4] z2 G,2 C2 |[M:1/4] C2 |[M:4/4] [F,,F,]2 C,2 F,2 C,2 | %12
 [F,,F,]2 C,2 F,2 C,2 | z z/ E/ F,2 [B,D]2 [F,^C]2 | [F,,F,]2 C,2 F,,2 A2 | D,2 A,2 F,2 A,2 | %16
 D,2 F,2 D,2 F,2 | z z/[K:treble] E/ D>F A2[K:bass] G,,2 | C,2 G,2 C2 C2 | [F,,F,]2 C,2 F,2 C,2 | %20
 [F,,F,]2 C,2 F,2 C,2 | z z/ E/ F,2 [B,D]2 [F,D]2 | A,,2 E,2 A,2 E,2 | B,,2 G,2 B,2 G,2 | %24
 =B,,2 _A,2 =B,2 A,2 | [A,,A,]2 [G,,G,]>[F,,F,] [B,,B,]2 [C,B,C]2 |[M:3/4] [F,,F,]2 z2 F,,2 |] %27
V:3
 x8 | x8 | z2 [G,C]2 [CEG]2 G>A | x8 |[M:3/4] x6 |[M:1/4] x2 |[M:4/4] x8 | x8 | x8 | %9
[M:3/4] C2 z2 z2 |[M:1/4] x2 |[M:4/4] z4 A,2 z2 | z4 A,2 z2 | D4 z4 | x8 | z4 D2 z2 | %16
 [DFA]4 A,2 z2 | [F,=B,]6 [B,DF]2 | [EG]6 z2 | z4 A,2 z2 | z4 A,2 z2 | x8 | x8 | x8 | x8 | x8 | %26
[M:3/4] x6 |] %27
V:4
 x8 | x8 | x8 | x8 |[M:3/4] x6 |[M:1/4][K:treble] x2 |[M:4/4][K:bass] x8 | x8 | x8 |[M:3/4] C,6 | %10
[M:1/4] x2 |[M:4/4] x8 | x8 | B,,2 z2 z4 | x8 | x8 | x8 | G,,6[K:treble][K:bass] z2 | x8 | x8 | %20
 x8 | B,,2 z2 z4 | x8 | x8 | x8 | x8 |[M:3/4] x6 |] %27

